static/images/cs-cybersierra-blue.svg

<svg width="134" height="116" viewBox="0 0 134 116" fill="none" xmlns="http://www.w3.org/2000/svg">
<path d="M94.1974 44.8315C96.8234 42.7854 96.8234 42.7854 99.137 34.3191C96.629 37.3684 93.5394 40.1427 94.1974 44.8315Z" fill="#82C6DD"/>
<path d="M50.2609 -32.6248C49.5211 -32.9717 48.0124 -32.3504 47.6563 -30.8551C47.3755 -29.6744 45.9416 -28.9908 46.0844 -27.567C45.1545 -25.6016 43.9288 -23.7618 43.54 -21.5677C43.3538 -21.4421 43.2884 -21.2702 43.3457 -21.0522C40.9819 -16.6522 38.3754 -12.3706 36.8034 -7.58564C36.7099 -6.59199 35.4403 -5.83244 36.222 -4.66524C36.1734 -4.16488 34.7374 -4.31654 35.6184 -3.38002C32.3189 1.34466 30.9355 6.90629 28.8289 12.152C27.2794 14.1291 26.1459 16.2624 26.3009 18.8803C24.7349 20.5239 23.8658 22.4248 24.1405 24.7464C23.6747 25.0654 22.9332 25.0117 22.7796 25.7532C22.314 27.8793 20.4543 29.4939 20.5454 31.826C20.037 33.1907 18.1331 34.2061 19.4917 36.0379C19.2225 36.8064 17.7578 37.7601 18.8383 38.25C20.163 38.8504 19.8989 37.0642 20.3111 36.3024C21.6904 35.129 21.1538 33.533 21.2439 32.0746C21.6277 30.9426 24.1045 31.2104 23.1689 29.1953C25.4088 27.0207 26.0556 24.1064 26.8535 21.2628C27.0944 20.6146 27.3356 19.9657 27.5768 19.3168C28.7757 17.7716 29.2083 15.9105 29.7337 14.0873C32.4273 13.3519 31.6039 10.7012 32.4003 8.9761C34.4731 4.48384 37.4013 0.372547 38.5455 -4.53858C40.5569 -5.32144 38.8809 -6.5197 38.8832 -7.52942C39.7701 -7.76387 40.3282 -8.26968 40.3096 -9.25371C41.5494 -10.2781 42.4144 -11.4556 41.918 -13.1892C42.0781 -14.6643 44.2876 -15.3403 43.4928 -17.1886C44.6152 -17.8099 44.9005 -18.711 44.3932 -19.8779C44.7332 -20.4806 45.073 -21.0826 45.4128 -21.6846C47.1874 -22.1252 46.5207 -23.8346 47.0858 -24.9036C47.3074 -25.3178 47.5298 -25.7318 47.7515 -26.146C49.1761 -27.0772 49.2762 -28.7375 49.863 -30.1098C50.2074 -30.9124 51.7413 -31.9306 50.2609 -32.6248Z" fill="#82C6DD"/>
<path d="M128.526 63.1819C126.686 65.6337 124.593 67.9908 125.184 71.3423C126.947 68.8622 128.548 66.3225 128.526 63.1819Z" fill="#82C6DD"/>
<path d="M133.283 53.3229C133.499 52.8592 133.946 51.9527 132.806 51.6884C131.891 51.4764 131.501 52.0149 131.307 52.7438C130.74 54.8721 130.213 57.0105 129.671 59.145C129.136 60.0992 128.539 61.0382 128.616 62.3025C130.623 61.939 129.758 60.3123 130.36 59.4544C132.155 57.8075 132.325 55.3733 133.283 53.3229Z" fill="#82C6DD"/>
<path d="M42.2392 -40.2631C41.7476 -41.1054 41.9324 -42.6285 40.7058 -42.6764C39.2103 -42.7344 39.8271 -41.1943 39.5219 -40.3485C39.1671 -39.3669 38.8042 -38.3885 38.4439 -37.4082C37.8467 -36.0917 37.2494 -34.7752 36.6529 -33.4584C36.6889 -32.9988 36.7248 -32.5392 36.7608 -32.0795C34.6134 -29.4555 34.3408 -25.9801 32.6928 -23.1291C30.6757 -22.451 32.8638 -20.4067 31.5167 -19.5113C29.5992 -16.7078 27.9007 -13.8317 28.4223 -10.216C28.424 -10.2162 28.4258 -10.2163 28.4276 -10.2165C28.4363 -10.2148 28.492 -10.1905 28.492 -10.1905C25.7593 -9.33483 26.583 -6.22058 24.9757 -4.64904C24.5797 -2.85588 22.0143 -1.77991 23.206 0.517122C24.7732 -0.258502 25.0089 -2.57923 27.1459 -2.71082C27.5875 -2.73767 28.0418 -3.30516 27.5986 -3.72195C27.2688 -4.03186 26.6159 -3.9976 26.1065 -4.11657C26.6126 -5.78802 29.321 -6.0814 28.7885 -8.40264C29.8188 -8.64214 29.8644 -9.52151 30.0351 -10.3199C29.8589 -11.7711 32.8755 -12.4314 31.0206 -14.2983C32.0367 -14.8577 33.0573 -15.4153 32.5778 -16.8772C32.7502 -17.3106 32.9218 -17.7444 33.0942 -18.1778C34.0563 -19.3199 33.5999 -21.4734 35.6871 -21.8141C35.5225 -22.2044 35.3579 -22.5948 35.1926 -22.9854C35.7908 -23.329 36.7266 -23.4216 36.3212 -24.5089C36.8923 -26.5752 38.5201 -28.3641 37.9503 -30.7287C38.0504 -30.9506 38.1505 -31.1725 38.2498 -31.3947C38.6692 -32.4985 39.0894 -33.602 39.5088 -34.7057C40.4698 -35.5779 40.4742 -36.858 40.8956 -37.9601C42.0221 -38.3248 43.2387 -38.5509 42.2392 -40.2631Z" fill="#82C6DD"/>
<path d="M60.8519 10.9302C61.4311 10.3292 61.5873 9.61587 61.4185 8.81473C61.7783 7.92239 62.9534 7.16835 62.0281 6.05443C61.6724 5.62603 61.1766 6.01126 60.7819 6.26312C59.5136 7.07147 60.4719 7.86192 60.7951 8.65804C60.0842 9.36862 56.871 8.20204 59.0031 11.0462C57.0702 12.3316 58.7766 14.964 57.0478 16.3256C56.2736 17.5637 55.4821 18.8003 56.7805 20.4392C56.8114 18.7392 58.0559 17.6725 58.5085 16.2208C59.0275 14.3401 60.9126 13.0666 60.8519 10.9302Z" fill="#82C6DD"/>
<path d="M121.733 80.3916C121.566 79.8986 121.008 80.0188 120.535 80.2428C118.233 81.3302 120.163 83.1815 119.725 84.5999C119.691 84.7127 119.667 84.8286 119.637 84.9426C118.197 85.0639 117.449 87.5946 118.248 89.7438C119.248 88.336 120.426 87.0428 120.137 85.1366C121.266 83.7523 122.391 82.3375 121.733 80.3916Z" fill="#82C6DD"/>
<path d="M123.841 73.7475C122.693 74.0429 122.064 74.8505 121.695 75.9166C122.185 75.7695 122.673 75.6228 123.162 75.476C122.908 76.6876 122.655 77.8994 122.401 79.1109C123.702 77.6267 124.491 75.9842 124.973 74.2561C125.414 72.6761 124.587 73.1184 123.841 73.7475Z" fill="#82C6DD"/>
<path d="M136.26 43.6125C135.397 45.9864 134.431 48.3046 133.357 50.701C135.332 48.8525 136.265 46.4303 136.26 43.6125Z" fill="#82C6DD"/>
<path d="M54.8815 22.4248C52.7004 22.0071 53.1785 25.1518 52.2514 26.6429C51.6312 27.5905 51.3012 28.5563 51.9748 29.805C53.1997 29.1839 53.373 28.1595 53.6092 27.1758C53.9951 25.4736 55.964 22.6317 54.8815 22.4248Z" fill="#82C6DD"/>
<path d="M115.365 96.3741C117.593 94.7744 117.22 92.4329 117.61 90.4251C116.43 92.1402 115.179 93.8348 115.365 96.3741Z" fill="#82C6DD"/>
<path d="M18.7129 38.9275C16.4758 40.528 16.856 42.9313 15.5668 44.3778C15.1217 45.5063 14.2487 46.6196 15.5775 47.9586C16.2383 46.9592 16.8756 46.0572 16.4381 44.7981C17.7129 43.2408 18.6931 41.5764 18.7129 38.9275Z" fill="#82C6DD"/>
<path d="M133.204 8.68527L133.207 8.68376L133.209 8.67771L133.205 8.68004L133.204 8.68527Z" fill="#82C6DD"/>
<path d="M131.142 13.968C133.405 12.8214 132.642 10.4952 133.202 8.68446C130.538 9.67452 131.392 12.0366 131.142 13.968Z" fill="#82C6DD"/>
<path d="M105.47 16.4494C106.873 15.1724 107.806 13.8735 108.16 12.2122C108.308 11.5209 108.006 11.0492 107.346 10.9367C107.108 10.8965 106.809 11.2186 106.538 11.3755C107.717 13.3255 105.026 14.35 105.47 16.4494Z" fill="#82C6DD"/>
<path d="M0.977578 54.332C2.01272 52.2357 2.11643 51.6027 1.85863 50.2891C1.41408 51.7202 0.601188 52.8815 0.977578 54.332Z" fill="#82C6DD"/>
<path d="M21.2081 5.60153C21.1035 5.44385 20.0339 5.69263 19.8993 6.35936C19.7562 7.07189 19.6422 7.95083 20.3114 8.40494C20.5205 8.54661 21.2435 7.93058 21.8254 7.60938C21.6221 6.849 21.5594 6.12992 21.2081 5.60153Z" fill="#82C6DD"/>
<path d="M135.892 3.69231C133.705 5.27051 133.527 7.00636 133.209 8.67749C134.987 7.66655 134.927 5.82255 135.892 3.69231Z" fill="#82C6DD"/>
<path d="M48.582 33.1869C48.7359 34.3804 49.3145 34.9127 50.0992 35.1314C50.197 35.1586 50.8775 34.1024 50.7437 33.7588C50.389 32.8437 49.4319 33.293 48.582 33.1869Z" fill="#82C6DD"/>
<path d="M13.1164 20.3223C13.8471 22.4023 12.0641 23.1818 13.1023 24.8252C13.7676 23.5013 14.7918 22.5801 13.1164 20.3223Z" fill="#82C6DD"/>
<path d="M63.256 2.6124C65.3251 2.3942 65.372 1.0486 65.8256 0.0395083C65.3897 -0.183 64.9543 -0.40449 64.5188 -0.625977C64.1285 0.374801 63.7383 1.37558 63.256 2.6124Z" fill="#82C6DD"/>
<path d="M67.5127 -6.23792C65.2487 -6.1237 67.2936 -4.3377 66.5084 -3.64934C65.8452 -2.6415 65.1819 -1.63364 64.519 -0.626536C64.9544 -0.40505 65.3896 -0.182836 65.8258 0.0389373C66.6524 -1.73965 68.1712 -3.21016 68.2274 -5.33322C68.7439 -6.46012 69.3501 -7.55629 69.7509 -8.72322C70.1284 -9.82385 69.42 -9.74513 68.7191 -9.54659C68.6279 -8.33091 68.609 -7.08962 67.5127 -6.23792Z" fill="#82C6DD"/>
<path d="M17.6188 13.2728C17.031 12.9292 16.528 13.1024 16.2239 13.7412C16.0638 14.2472 16.1934 14.734 16.7146 14.8051C17.2858 14.8829 17.9012 14.6646 18.0677 14.0137C18.1196 13.8112 17.8473 13.4059 17.6188 13.2728Z" fill="#82C6DD"/>
<path d="M131.139 13.9768L131.142 13.9754L131.143 13.9679L131.138 13.9705L131.139 13.9768Z" fill="#82C6DD"/>
<path d="M129.787 16.6104C131.192 16.096 131.317 15.1062 131.139 13.9759C129.896 14.4487 129.615 15.3672 129.787 16.6104Z" fill="#82C6DD"/>
<path d="M48.767 36.946C47.8013 37.0633 47.1578 37.3817 47.1693 38.3841C46.3676 39.2778 44.8065 40.3396 46.1056 41.4053C47.0043 42.142 47.5207 40.3594 48.1014 39.587C49.3195 38.9311 48.1237 37.7659 48.767 36.946Z" fill="#82C6DD"/>
<path d="M44.1197 45.5572C41.919 46.2544 42.4479 48.476 41.6585 49.9616C40.9697 51.6084 39.556 53.1418 40.9219 55.7153C41.6485 53.8519 42.1787 52.4923 42.7089 51.1327C43.3132 49.5894 43.9173 48.0468 44.5224 46.5038C44.9598 45.2757 45.9603 44.2046 45.7254 42.6694C44.1603 43.207 44.6347 44.6364 44.1197 45.5572Z" fill="#82C6DD"/>
<path d="M116.788 48.7754C116.785 48.785 116.783 48.7963 116.779 48.807C116.789 48.8039 116.795 48.8002 116.805 48.7971L116.788 48.7754Z" fill="#82C6DD"/>
<path d="M115.448 51.7159C117.15 51.2115 116.457 49.7898 116.779 48.8059C115.262 49.2671 115.247 50.3871 115.448 51.7159Z" fill="#82C6DD"/>
<path d="M101.123 26.8326C100.94 27.2043 100.743 27.7452 101.361 27.9258C101.591 27.9928 101.915 27.7379 102.12 27.6595C102.304 27.0814 102.371 26.5993 101.833 26.4184C101.654 26.3576 101.229 26.6172 101.123 26.8326Z" fill="#82C6DD"/>
<path d="M7.59416 37.1422C7.17806 36.7884 6.59492 37.0151 6.44744 37.415C6.31027 37.7885 6.5557 38.3019 6.63277 38.7538C6.99974 38.5818 7.36773 38.4093 7.79689 38.2081C8.37937 37.7897 7.88327 37.387 7.59416 37.1422Z" fill="#82C6DD"/>
<path d="M116.791 48.7745L116.807 48.7958C116.818 48.7824 116.825 48.7682 116.835 48.7542C116.819 48.7607 116.807 48.7681 116.791 48.7745Z" fill="#82C6DD"/>
<path d="M117.716 46.1378C116.603 46.9145 117.363 48.0288 116.832 48.7547C118.1 48.2572 118.227 47.4069 117.716 46.1378Z" fill="#82C6DD"/>
<path d="M88.5095 59.9781C88.103 59.7518 87.5781 59.753 87.5165 60.3694C87.4935 60.6002 87.8528 60.8691 88.1026 61.2105C88.4226 61.0328 88.845 60.9315 88.892 60.7372C88.9452 60.5182 88.7273 60.0995 88.5095 59.9781Z" fill="#82C6DD"/>
<path d="M8.21319 34.762C8.80138 34.9329 8.83884 34.3545 9.08066 33.8973C9.0349 33.7083 8.97059 33.441 8.90553 33.1733C8.5789 33.4331 8.17721 33.6441 7.95672 33.9749C7.85559 34.1278 8.05185 34.7152 8.21319 34.762Z" fill="#82C6DD"/>
<path d="M109.351 8.95103C109.325 8.61958 109.301 8.32504 109.278 8.0305C108.9 8.1865 108.401 8.24743 108.184 8.5272C108.003 8.76005 108.155 9.25046 108.161 9.62708C108.535 9.41468 108.909 9.20199 109.351 8.95103Z" fill="#82C6DD"/>
<path d="M11.9481 25.4657C11.6125 25.9287 11.3077 26.1673 11.2821 26.4327C11.2557 26.7113 11.4184 27.1195 11.6391 27.2835C11.9465 27.5118 12.3553 27.3129 12.3521 26.9279C12.3497 26.5127 12.1355 26.0996 11.9481 25.4657Z" fill="#82C6DD"/>
</svg>

<svg xmlns="http://www.w3.org/2000/svg" width="134" height="116" fill="none" viewBox="0 0 134 116"><path fill="#82c6dd" d="M94.197 44.832c2.626-2.047 2.626-2.047 4.94-10.513-2.508 3.05-5.598 5.824-4.94 10.512M50.26-32.625c-.739-.347-2.248.275-2.604 1.77-.28 1.18-1.714 1.864-1.572 3.288-.93 1.965-2.155 3.805-2.544 6a.44.44 0 0 0-.194.515c-2.364 4.4-4.97 8.681-6.543 13.466-.093.994-1.363 1.754-.581 2.92-.049.501-1.485.35-.604 1.286-3.3 4.725-4.683 10.286-6.79 15.532-1.549 1.977-2.682 4.11-2.527 6.728-1.566 1.644-2.435 3.545-2.16 5.866-.466.32-1.208.266-1.361 1.007-.466 2.126-2.326 3.74-2.235 6.073-.508 1.365-2.412 2.38-1.053 4.212-.27.768-1.734 1.722-.654 2.212 1.325.6 1.06-1.186 1.473-1.948 1.38-1.173.843-2.769.933-4.227.384-1.132 2.86-.865 1.925-2.88 2.24-2.174 2.887-5.089 3.685-7.932l.723-1.946c1.199-1.545 1.631-3.406 2.157-5.23 2.693-.735 1.87-3.386 2.666-5.11C34.473 4.483 37.401.372 38.545-4.54c2.012-.782.336-1.98.338-2.99.887-.235 1.445-.74 1.427-1.725 1.24-1.024 2.104-2.202 1.608-3.935.16-1.475 2.37-2.151 1.575-4 1.122-.62 1.407-1.522.9-2.689l1.02-1.807c1.774-.44 1.108-2.15 1.673-3.219l.666-1.242c1.424-.931 1.524-2.591 2.111-3.964.344-.802 1.878-1.82.398-2.515M128.526 63.182c-1.84 2.452-3.933 4.809-3.342 8.16 1.763-2.48 3.364-5.02 3.342-8.16M133.283 53.323c.216-.464.663-1.37-.477-1.635-.915-.212-1.305.327-1.499 1.056-.567 2.128-1.094 4.267-1.636 6.401-.535.954-1.132 1.893-1.055 3.157 2.007-.363 1.142-1.99 1.744-2.848 1.795-1.647 1.965-4.08 2.923-6.131M42.24-40.263c-.492-.842-.308-2.366-1.534-2.413-1.496-.058-.879 1.482-1.184 2.328-.355.981-.718 1.96-1.078 2.94q-.896 1.974-1.791 3.95l.108 1.378c-2.148 2.624-2.42 6.1-4.068 8.95-2.017.679.17 2.723-1.176 3.619-1.918 2.803-3.616 5.68-3.095 9.295h.006l.064.025c-2.733.856-1.909 3.97-3.516 5.542-.396 1.793-2.962 2.87-1.77 5.166 1.567-.776 1.803-3.096 3.94-3.228.441-.027.896-.594.453-1.011-.33-.31-.983-.276-1.492-.395.506-1.671 3.214-1.964 2.682-4.286 1.03-.24 1.075-1.119 1.246-1.917-.176-1.451 2.84-2.111.986-3.978 1.016-.56 2.036-1.117 1.557-2.58l.516-1.3c.962-1.142.506-3.295 2.593-3.636l-.494-1.171c.598-.344 1.534-.437 1.128-1.524.571-2.066 2.2-3.855 1.63-6.22l.299-.666 1.259-3.31c.96-.873.965-2.153 1.387-3.255 1.126-.365 2.343-.59 1.343-2.303M60.852 10.93c.58-.6.735-1.314.567-2.115.36-.893 1.534-1.647.61-2.76-.357-.429-.852-.044-1.247.208-1.268.808-.31 1.599.013 2.395-.71.71-3.924-.456-1.792 2.388-1.933 1.286-.226 3.918-1.955 5.28-.774 1.238-1.566 2.474-.267 4.113.03-1.7 1.275-2.767 1.727-4.218.52-1.88 2.405-3.154 2.344-5.29M121.733 80.392c-.167-.493-.725-.373-1.198-.15-2.302 1.088-.372 2.94-.81 4.358-.034.113-.058.229-.088.343-1.44.12-2.188 2.652-1.389 4.8 1-1.407 2.178-2.7 1.889-4.606 1.129-1.385 2.254-2.8 1.596-4.745M123.841 73.748c-1.148.295-1.777 1.102-2.146 2.169l1.467-.441-.761 3.635c1.301-1.484 2.09-3.127 2.572-4.855.441-1.58-.386-1.138-1.132-.508M136.26 43.613c-.863 2.373-1.829 4.692-2.903 7.088 1.975-1.849 2.908-4.27 2.903-7.089M54.882 22.425c-2.182-.418-1.703 2.727-2.63 4.218-.62.947-.95 1.913-.277 3.162 1.225-.621 1.398-1.645 1.634-2.63.386-1.701 2.355-4.543 1.273-4.75M115.365 96.374c2.228-1.6 1.855-3.941 2.245-5.949-1.18 1.715-2.431 3.41-2.245 5.95M18.713 38.928c-2.237 1.6-1.857 4.003-3.146 5.45-.445 1.128-1.318 2.242.01 3.58.661-.999 1.299-1.9.861-3.16 1.275-1.557 2.255-3.222 2.275-5.87M133.204 8.685l.003-.001.002-.006-.004.002zM131.142 13.968c2.263-1.147 1.5-3.473 2.06-5.284-2.664.99-1.81 3.353-2.06 5.284M105.47 16.45c1.403-1.278 2.336-2.576 2.69-4.238.148-.691-.154-1.163-.814-1.275-.238-.04-.537.282-.808.439 1.179 1.95-1.512 2.974-1.068 5.073M.978 54.332c1.035-2.096 1.138-2.73.88-4.043-.444 1.431-1.257 2.593-.88 4.043M21.208 5.602c-.104-.158-1.174.09-1.309.757-.143.713-.257 1.592.412 2.046.21.142.933-.474 1.514-.796-.203-.76-.266-1.48-.617-2.007M135.892 3.692c-2.187 1.579-2.365 3.314-2.683 4.985 1.778-1.01 1.718-2.854 2.683-4.985M48.582 33.187c.154 1.193.733 1.726 1.517 1.944.098.028.779-1.029.645-1.372-.355-.915-1.312-.466-2.162-.572M13.116 20.322c.731 2.08-1.052 2.86-.014 4.503.666-1.324 1.69-2.245.014-4.503M63.256 2.612c2.07-.218 2.116-1.563 2.57-2.572l-1.307-.666zM67.513-6.238c-2.264.114-.22 1.9-1.005 2.589L64.52-.627l1.307.666c.826-1.779 2.345-3.25 2.401-5.372.517-1.127 1.123-2.223 1.524-3.39.377-1.1-.331-1.022-1.032-.824-.091 1.216-.11 2.457-1.206 3.31M17.619 13.273c-.588-.344-1.091-.17-1.395.468-.16.506-.03.993.49 1.064.572.078 1.187-.14 1.354-.791.052-.203-.22-.608-.45-.741M131.139 13.977l.003-.002.001-.007-.005.002z"/><path fill="#82c6dd" d="M129.787 16.61c1.405-.514 1.53-1.504 1.352-2.634-1.243.473-1.524 1.391-1.352 2.634M48.767 36.946c-.966.117-1.61.436-1.598 1.438-.801.894-2.362 1.956-1.063 3.021.898.737 1.415-1.046 1.995-1.818 1.218-.656.023-1.821.666-2.641M44.12 45.557c-2.201.697-1.672 2.919-2.462 4.405-.688 1.646-2.102 3.18-.736 5.753l1.787-4.582 1.813-4.63c.438-1.227 1.438-2.298 1.203-3.834-1.565.538-1.09 1.967-1.605 2.888M116.788 48.775l-.009.032.026-.01z"/><path fill="#82c6dd" d="M115.448 51.716c1.702-.505 1.009-1.926 1.331-2.91-1.517.461-1.532 1.581-1.331 2.91M101.123 26.833c-.183.371-.38.912.238 1.093.23.067.554-.188.759-.266.184-.579.251-1.06-.287-1.242-.179-.06-.604.2-.71.415M7.594 37.142a.73.73 0 0 0-1.147.273c-.137.373.109.887.186 1.339l1.164-.546c.582-.418.086-.821-.203-1.066M116.791 48.775l.016.02q.015-.02.028-.04-.022.01-.044.02M117.716 46.138c-1.113.776-.353 1.89-.884 2.617 1.268-.498 1.395-1.348.884-2.617M88.51 59.978c-.407-.226-.932-.225-.994.391-.023.231.337.5.587.842.32-.178.742-.28.789-.474.053-.219-.165-.638-.382-.759M8.213 34.762c.588.17.626-.407.868-.865l-.175-.724c-.327.26-.729.471-.95.802-.1.153.096.74.257.787M109.351 8.951l-.073-.92c-.378.155-.877.216-1.094.496-.181.233-.029.723-.023 1.1zM11.948 25.466c-.335.463-.64.701-.666.967-.026.278.136.686.357.85.308.229.716.03.713-.355-.002-.415-.216-.828-.404-1.462"/></svg>
